X:17
T:Boatswain's Wife - Fry
%%VWML:SBG-1-2-789-0
F:http://www.vwml.org/record/SBG/1/2/789
Z:Original Sibelius transcriptions by M. & S. Graebe
M:4/4
I:linebreak $
K:C
V:1 treble nm="P1"
V:1
 G | c G E C | E D z C | C D E F | G3 G | c E E D | E2 E D | C D"_(" E"_)" ^F |$ G3 G | A2 A B | %10
 c B z A | A2 A B | c3 c | d d c B | A A z G |$ G ^F E F | G3 G | c3/2 c/ E D | D C z G | %19
 c3/2 G/ E E | D3 x | %21

